X: 17286
T: Hermit From Killarney, The
R: polka
M: 2/4
K: Adorian
AB/A/ GE|cd e>d|cA GE|G2 EG|
AB/A/ GE|cd e>d|cA BG|A2 A2:|
|:ea e>d|ea e>d|(3B^cd ef|g2 fg|
[1 ea e>d|ea e>d|(3cBA BG|A2 A2:|
[2 ab/a/ ge|fd ed|cA BG|A2 A2||

